X:21
T:Malibu Abu
R:reel
D:"Chasing the bear" by Jon Hicks
Z:Transcribed by Lionel Gueganton
L:1/8
M:4/4
K:D
 |: B2 ED2^D EF        | [G^D]A BG AG FG    | [B2E2] E/E/E gf ed  | =c/B/B GE FE A/B/B    |
    BE ED D^D EF       | [G^D]A BG AG FG    | [BE]b ^ge B/=c/B cd |1 BA FG ED B/B/B      :|2 BA FG E2 B/B/B
 |: Bg fe d/=c/B cd    | Bg fd [e2e2] B/B/B | Bg fe d/=c/B cd     | BA FG F2 B/B/B        |
    Bg fe d/=c/B cd    | Bg fd [e2e2] e/e/e | eb ^ge d/=c/B cd    | BA FG [A2A2] [AA][AA] |1 [c2A2] B/B/B 
:|2 [A2A2] ec [AA]A ec | A/A/A ec [c2A2] AB |

